public/brands/ironio.svg

<?xml version="1.0" encoding="UTF-8" standalone="no"?>
<svg width="512px" height="185px" viewBox="0 0 512 185" version="1.1" xmlns="http://www.w3.org/2000/svg" xmlns:xlink="http://www.w3.org/1999/xlink" preserveAspectRatio="xMidYMid">
	<g>
		<path d="M105.061699,89.3083836 C93.7521096,87.9266849 84.3747945,95.3857534 77.1541918,105.110247 C76.6912877,105.734466 75.9127671,105.979945 75.1763288,105.734466 C74.4363836,105.485479 73.9594521,104.833205 73.9594521,104.054685 L73.9594521,97.2759452 C73.9594521,93.3693151 70.7787397,90.1886027 66.8721096,90.1886027 L49.4500822,90.1886027 C45.5469589,90.1886027 42.3662466,93.3658082 42.3662466,97.2654247 L42.3311781,174.093479 C42.3311781,177.989589 45.5153973,181.177315 49.4185205,181.177315 L66.8721096,181.177315 C70.7787397,181.177315 73.9594521,177.996603 73.9594521,174.093479 L73.9594521,155.717589 C73.9594521,141.939178 91.1500274,122.360438 105.061699,121.364493 L105.061699,89.3083836" fill="#282927"></path>
		<path d="M33.6622466,174.093479 L33.6622466,70.2276164 C33.6622466,66.3174795 30.4780274,63.1367671 26.5749041,63.1367671 L7.08734247,63.1367671 C3.18421918,63.1367671 0,66.3174795 0,70.2276164 L0,174.093479 C0,177.996603 3.18421918,181.177315 7.08734247,181.177315 L26.5749041,181.177315 C30.4780274,181.177315 33.6622466,177.996603 33.6622466,174.093479" fill="#282927"></path>
		<path d="M156.54926,116.788055 C145.330849,116.788055 136.237589,125.755068 136.237589,136.815671 C136.237589,147.876274 145.330849,156.850301 156.54926,156.850301 C167.767671,156.850301 176.860932,147.876274 176.860932,136.815671 C176.860932,125.755068 167.767671,116.788055 156.54926,116.788055 L156.54926,116.788055 Z M156.54926,88.7718356 C183.453808,88.7718356 205.266411,110.282849 205.266411,136.815671 C205.266411,163.348493 183.453808,184.863014 156.54926,184.863014 C129.648219,184.863014 107.835616,163.348493 107.835616,136.815671 C107.835616,110.282849 129.648219,88.7718356 156.54926,88.7718356 L156.54926,88.7718356 Z" fill="#282927"></path>
		<path d="M430.307945,116.788055 C419.093041,116.788055 409.996274,125.755068 409.996274,136.815671 C409.996274,147.876274 419.093041,156.850301 430.307945,156.850301 C441.522849,156.850301 450.61611,147.876274 450.61611,136.815671 C450.61611,125.755068 441.522849,116.788055 430.307945,116.788055 L430.307945,116.788055 Z M430.307945,88.7718356 C457.208986,88.7718356 479.018082,110.282849 479.018082,136.815671 C479.018082,163.348493 457.208986,184.863014 430.307945,184.863014 C403.39989,184.863014 381.590795,163.348493 381.590795,136.815671 C381.590795,110.282849 403.39989,88.7718356 430.307945,88.7718356 L430.307945,88.7718356 Z" fill="#282927"></path>
		<path d="M301.161205,174.093479 L301.161205,124.355836 C301.161205,92.5627397 267.260493,82.2420822 246.542027,102.11189 L242.859836,95.9959452 C241.544767,93.8041644 239.345973,92.5627397 236.785973,92.5627397 L218.448658,92.5627397 C214.545534,92.5627397 211.361315,95.7469589 211.361315,99.6500822 L211.361315,174.093479 C211.361315,177.996603 214.545534,181.177315 218.448658,181.177315 L239.451178,181.177315 C243.354301,181.177315 246.542027,177.996603 246.542027,174.093479 L246.542027,128.606137 C246.542027,123.233644 250.890521,118.881644 256.263014,118.881644 C261.632,118.881644 265.987507,123.233644 265.987507,128.606137 L265.987507,174.093479 C265.987507,177.996603 269.164712,181.177315 273.074849,181.177315 L294.073863,181.177315 C297.969973,181.177315 301.161205,177.996603 301.161205,174.093479" fill="#282927"></path>
		<path d="M260.274849,67.3484932 C259.696219,68.1866301 258.328548,70.6203836 256.638247,73.8536986 L272.201644,73.8536986 C272.892493,73.8536986 273.562301,73.962411 274.193534,74.1623014 C280.26389,66.0474521 287.596712,60.6644384 295.508164,58.0237808 C304.142027,55.1376438 313.631562,55.4778082 323.040438,59.0512877 L323.036932,59.0653151 C326.848877,60.5171507 331.109699,58.7146301 332.747397,55.0289315 C340.953425,39.6198356 350.976,29.1694247 361.647342,23.0324384 C369.639452,18.4314521 378.027836,16.2431781 386.275945,16.197589 C394.527562,16.152 402.705534,18.2526027 410.266301,22.2398904 C420.446685,27.5983562 429.476822,36.3479452 436.087233,47.8433973 L442.701151,44.0454795 L436.062685,47.8609315 C437.710904,50.7330411 440.944219,52.1287671 444.023233,51.5887123 C459.65326,50.084274 472.235836,54.7133151 481.076603,62.8667397 C487.409973,68.7091507 491.916274,76.4031781 494.321973,84.9914521 C496.776767,93.7340274 497.053808,103.367342 494.886575,112.923507 C493.238356,120.165151 490.18389,127.364712 485.589918,134.104877 C486.056329,136.976986 486.298301,139.915726 486.298301,142.914082 C486.298301,148.416329 485.484712,153.743233 483.966247,158.765041 C497.948055,146.536658 506.325918,131.523836 509.783671,116.269041 C512.522521,104.201973 512.161315,91.9876164 509.047233,80.8673973 C505.891068,69.5928767 499.897863,59.4230137 491.428822,51.6132603 C480.371726,41.4153425 465.215123,35.3029041 446.772603,36.0814247 C438.941808,24.0248767 428.764932,14.7036712 417.388712,8.7139726 C407.653699,3.58345205 397.027945,0.876164384 386.209315,0.935780822 C375.380164,0.991890411 364.42126,3.83243836 354.044493,9.80460274 C349.324274,12.5189041 344.726795,15.8784658 340.325699,19.9113425 L255.235507,25.8309041 L332.249425,28.3873973 C328.679452,32.6376986 325.295342,37.4105205 322.135671,42.7198904 C311.457315,39.9073973 300.715836,40.1739178 290.661699,43.5404932 C281.750795,46.5178082 274.207562,51.108274 267.095671,58.8934795 L206.220274,62.8492055 L261.681096,65.3811507 C261.207671,66.0229041 260.737753,66.6821918 260.274849,67.3484932" fill="#C52437"></path>
		<path d="M369.769205,94.2390137 L352.021041,94.2390137 C348.48263,94.2390137 345.592986,97.5424658 345.592986,101.585863 L345.592986,173.826959 C345.592986,177.87737 348.48263,181.177315 352.021041,181.177315 L369.769205,181.177315 C373.30411,181.177315 376.19726,177.87737 376.19726,173.826959 L376.19726,101.585863 C376.19726,97.5424658 373.30411,94.2390137 369.769205,94.2390137" fill="#282927"></path>
		<path d="M333.424219,149.163288 L313.03189,149.163288 C309.518027,149.163288 306.600329,152.494795 306.600329,156.517151 L306.600329,173.826959 C306.600329,177.842301 309.486466,181.177315 313.03189,181.177315 L333.424219,181.177315 C336.969644,181.177315 339.852274,177.87737 339.852274,173.826959 L339.852274,156.517151 C339.852274,152.46674 336.938082,149.163288 333.424219,149.163288" fill="#282927"></path>
		<path d="M369.762192,66.2648767 L352.021041,66.2648767 C348.500164,66.2648767 345.589479,69.5893699 345.589479,73.6187397 L345.589479,79.685589 C345.589479,83.7079452 348.48263,87.0324384 352.021041,87.0324384 L369.762192,87.0324384 C373.30411,87.0324384 376.193753,83.7324932 376.193753,79.685589 L376.193753,73.6187397 C376.193753,69.5683288 373.279562,66.2648767 369.762192,66.2648767" fill="#282927"></path>
	</g>
</svg>

<svg width="512" height="185" viewBox="0 0 512 185" xmlns="http://www.w3.org/2000/svg" preserveAspectRatio="xMidYMid"><path d="M105.062 89.308c-11.31-1.381-20.687 6.078-27.908 15.802a1.744 1.744 0 0 1-1.978.624 1.747 1.747 0 0 1-1.217-1.68v-6.778c0-3.907-3.18-7.087-7.087-7.087H49.45c-3.903 0-7.084 3.177-7.084 7.076l-.035 76.828c0 3.897 3.184 7.084 7.088 7.084h17.453c3.907 0 7.087-3.18 7.087-7.084v-18.375c0-13.779 17.191-33.358 31.103-34.354V89.308M33.662 174.093V70.228c0-3.91-3.184-7.091-7.087-7.091H7.087c-3.903 0-7.087 3.18-7.087 7.09v103.866c0 3.904 3.184 7.084 7.087 7.084h19.488c3.903 0 7.087-3.18 7.087-7.084M156.55 116.788c-11.22 0-20.312 8.967-20.312 20.028 0 11.06 9.093 20.034 20.311 20.034 11.219 0 20.312-8.974 20.312-20.034 0-11.06-9.093-20.028-20.312-20.028zm0-28.016c26.904 0 48.716 21.51 48.716 48.044 0 26.532-21.812 48.047-48.717 48.047-26.9 0-48.713-21.515-48.713-48.047 0-26.533 21.812-48.044 48.713-48.044zM430.308 116.788c-11.215 0-20.312 8.967-20.312 20.028 0 11.06 9.097 20.034 20.312 20.034 11.215 0 20.308-8.974 20.308-20.034 0-11.06-9.093-20.028-20.308-20.028zm0-28.016c26.901 0 48.71 21.51 48.71 48.044 0 26.532-21.809 48.047-48.71 48.047-26.908 0-48.717-21.515-48.717-48.047 0-26.533 21.809-48.044 48.717-48.044zM301.161 174.093v-49.737c0-31.793-33.9-42.114-54.619-22.244l-3.682-6.116c-1.315-2.192-3.514-3.433-6.074-3.433h-18.337c-3.903 0-7.088 3.184-7.088 7.087v74.443c0 3.904 3.185 7.084 7.088 7.084h21.002c3.903 0 7.091-3.18 7.091-7.084v-45.487c0-5.372 4.349-9.724 9.721-9.724 5.369 0 9.725 4.352 9.725 9.724v45.487c0 3.904 3.177 7.084 7.087 7.084h20.999c3.896 0 7.087-3.18 7.087-7.084" fill="#282927"/><path d="M260.275 67.348c-.579.839-1.946 3.272-3.637 6.506h15.564c.69 0 1.36.108 1.992.308 6.07-8.115 13.403-13.498 21.314-16.138 8.634-2.886 18.124-2.546 27.532 1.027l-.003.014a7.654 7.654 0 0 0 9.71-4.036c8.206-15.41 18.229-25.86 28.9-31.997 7.992-4.6 16.38-6.789 24.629-6.834 8.252-.046 16.43 2.055 23.99 6.042 10.18 5.358 19.21 14.108 25.821 25.603l6.614-3.798-6.638 3.816a7.659 7.659 0 0 0 7.96 3.728c15.63-1.505 28.213 3.124 37.054 11.278 6.333 5.842 10.84 13.536 13.245 22.124 2.455 8.743 2.732 18.376.565 27.933-1.649 7.241-4.703 14.44-9.297 21.18.466 2.873.708 5.812.708 8.81a54.71 54.71 0 0 1-2.332 15.851c13.982-12.228 22.36-27.241 25.818-42.496 2.739-12.067 2.377-24.281-.737-35.402-3.156-11.274-9.15-21.444-17.618-29.254-11.057-10.198-26.214-16.31-44.656-15.532-7.831-12.056-18.008-21.377-29.384-27.367-9.735-5.13-20.361-7.838-31.18-7.778-10.829.056-21.788 2.896-32.165 8.869-4.72 2.714-9.317 6.073-13.718 10.106l-85.09 5.92 77.013 2.556c-3.57 4.25-6.954 9.024-10.113 14.333-10.679-2.813-21.42-2.546-31.474.82-8.911 2.978-16.454 7.568-23.566 15.353L206.22 62.85l55.461 2.532a85.371 85.371 0 0 0-1.406 1.967" fill="#C52437"/><path d="M369.77 94.239H352.02c-3.538 0-6.428 3.303-6.428 7.347v72.241c0 4.05 2.89 7.35 6.428 7.35h17.748c3.535 0 6.428-3.3 6.428-7.35v-72.241c0-4.044-2.893-7.347-6.428-7.347M333.424 149.163h-20.392c-3.514 0-6.432 3.332-6.432 7.354v17.31c0 4.015 2.886 7.35 6.432 7.35h20.392c3.546 0 6.428-3.3 6.428-7.35v-17.31c0-4.05-2.914-7.354-6.428-7.354M369.762 66.265h-17.741c-3.52 0-6.432 3.324-6.432 7.354v6.067c0 4.022 2.894 7.346 6.432 7.346h17.741c3.542 0 6.432-3.3 6.432-7.346v-6.067c0-4.05-2.914-7.354-6.432-7.354" fill="#282927"/></svg>
